!!!Genre:	Olandre (lyondre)
!!!Mode:	Minor
!!!Listening/dance:	dance
!!!:	*B-:
!!!One_Mode:	no
**kern
*I"P1
*clefG2
*k[b-e-]
*>bM
*B-:
*M3/4
*>A
4f
=1
4b-
4dd
(8qdd/
8ccL)
8b-J
=2
8b-L
8f
8b-
8dd
8cc
8fJ
=3
4b-
4dd
(16ccLL
16ddJ
8ccJ)
=4
4.b-
8r
4f
=5
4b-
4dd
(8qdd/
8.ccL)
16b-Jk
=6
8b-L
8f
8b-
8ddJ
4f
=7
4b-
4dd
(16ccLL
16ddJ
8ccJ)
=
4b-
8r
=8||
*>B
*>eM
*g:
8ddL
8ee-
8eenJ
=9
*^
2ff	4.ff
.	8dd
4gg	8ggL
.	8ggJ
=10	=10
2dd	(4.dd
.	8cc)
4cc	(8ccL
.	8b-J)
*v	*v
=11
2b-
(8qb-/
4a)
=12
8gL
8a
8b-
8cc
8dd
8ee-J
=13
*^
2ff	(4.ff
.	8dd)
4gg	8ggL
.	8ggJ
*v	*v
=14
2dd
4cc
=15
4.b-
8cc
8aL
8b-J
=
2g
=16||
*>C
4ff
=17
4ff
(8qaa-X/
4gg)
4gg
=18
8aa-XL
8gg
8ff
8eenJ
4ff
=19
4gg
4ee-X
4ee-
=20
4ff
4dd
4dd
=21
4.gg
8dd
(16ee-LL
16ddJ
8ccJ)
=22
2b-
4a
=23
4.b-
8cc
8aL
8b-J
=24
2g
==
*-
